assets/logos/infopib.svg

<svg width="80" height="80" viewBox="0 0 80 80" fill="none" xmlns="http://www.w3.org/2000/svg">
<ellipse cx="40.3825" cy="39.5829" rx="29.9838" ry="29.9838" fill="white"/>
<path d="M30.693 49.1311C31.2119 49.65 32.7686 51.2067 39.9293 51.2067C47.0901 51.2067 48.6468 49.65 49.1657 49.1311C49.6846 48.6122 51.2413 47.0555 51.2413 39.8948C51.2413 32.734 49.6846 31.1773 49.1657 30.6584C48.6468 30.1395 47.0901 28.5828 39.9293 28.5828C32.7686 28.5828 31.2119 30.1395 30.693 30.6584C30.1741 31.1773 28.6174 32.734 28.6174 39.8948C28.6174 47.0555 30.1741 48.6122 30.693 49.1311ZM24.9852 24.9852C27.4759 22.4945 33.3567 20.9032 39.9985 20.9032C46.6404 20.9032 52.5212 22.4945 55.0119 24.9852C57.5026 27.4759 59.0939 33.3567 59.0939 39.9985C59.0939 46.6404 57.5026 52.5212 55.0119 55.0119C52.5212 57.5026 46.6404 59.0939 39.9985 59.0939C33.3567 59.0939 27.4759 57.468 24.9852 55.0119C22.4945 52.5558 20.9032 46.6404 20.9032 39.9985C20.9032 33.3567 22.4945 27.4759 24.9852 24.9852ZM21.6988 58.402C25.1927 61.8959 32.0421 64.0061 39.9985 64.0061C47.9549 64.0061 54.8043 61.9305 58.2982 58.402C61.7921 54.9081 63.9023 48.0587 63.9023 40.1023C63.9023 32.1459 61.8267 25.2965 58.2982 21.8026C54.8043 18.3087 47.9549 16.1985 39.9985 16.1985C32.0421 16.1985 25.1927 18.2741 21.6988 21.8026C18.2049 25.3311 16.0948 32.1459 16.0948 40.1023C16.1294 48.0587 18.2049 54.9081 21.6988 58.402ZM8 39.9985C8 22.3215 22.3215 8 39.9985 8C57.5026 8 71.7549 22.0793 71.9971 39.5488C72.2392 57.4334 57.468 72.2046 39.5834 71.9625C22.0794 71.7203 8 57.5026 8 39.9985ZM35.6052 33.8064H44.3573C45.3605 33.8064 46.1561 34.602 46.1561 35.6052V44.3573C46.1561 45.3605 45.3605 46.1561 44.3573 46.1561H35.6052C34.602 46.1561 33.8064 45.3605 33.8064 44.3573V35.6052C33.8064 34.602 34.602 33.8064 35.6052 33.8064Z" fill="#E9530E"/>
</svg>

<svg xmlns="http://www.w3.org/2000/svg" width="80" height="80" fill="none" viewBox="0 0 80 80"><circle cx="40.383" cy="39.583" r="29.984" fill="#fff"/><path fill="#e9530e" d="M30.693 49.131c.519.519 2.076 2.076 9.236 2.076s8.718-1.557 9.237-2.076 2.075-2.075 2.075-9.236-1.556-8.718-2.075-9.237c-.52-.518-2.076-2.075-9.237-2.075s-8.717 1.557-9.236 2.075c-.519.52-2.076 2.076-2.076 9.237s1.557 8.717 2.076 9.236m-5.708-24.146c2.49-2.49 8.372-4.082 15.014-4.082s12.522 1.592 15.013 4.082S59.094 33.357 59.094 40s-1.591 12.522-4.082 15.013-8.372 4.082-15.013 4.082c-6.642 0-12.523-1.626-15.014-4.082S20.903 46.641 20.903 40c0-6.642 1.592-12.523 4.082-15.014M21.7 58.402c3.494 3.494 10.343 5.604 18.3 5.604 7.956 0 14.805-2.075 18.3-5.604 3.493-3.494 5.603-10.343 5.603-18.3 0-7.956-2.075-14.805-5.604-18.3-3.494-3.493-10.343-5.603-18.3-5.603-7.956 0-14.805 2.075-18.3 5.604-3.493 3.528-5.603 10.343-5.603 18.3.034 7.956 2.11 14.805 5.604 18.299M8 39.999C8 22.32 22.322 8 39.999 8c17.504 0 31.756 14.08 31.998 31.549.242 17.884-14.529 32.656-32.414 32.414C22.08 71.72 8 57.503 8 39.999m27.605-6.193h8.752c1.004 0 1.8.796 1.8 1.8v8.751a1.786 1.786 0 0 1-1.8 1.8h-8.752a1.786 1.786 0 0 1-1.799-1.8v-8.752c0-1.003.796-1.799 1.8-1.799"/></svg>
